X: 970
T: All The Night I Lay With Jockey
R: three-two
M: 3/2
K: Gmajor
|:e3d B2e2 dBAG|B2g2 g2B2 d2g2|e3d B2[e2g2] dBAG|A2e2 e2A2 c4:|
|:B2d2 edcB dBAG|B2d2 edcB d2g2|B2d2 edcB dBAG|A2e2 e2A2 c4:|
|:G3A B2g2 dBAG|B2g2 g2B2 d2g2|G3A B2g2 dBAG|A2e2 e2A2 c4:|
|:B2g2 g2B2 efge|BcdB g2B2 d4|B2g2 g2B2 efge|A2e2 e2A2 c4:|
|:gfed edcB dBAG|gfed edcB efge|gfed edcB dBAG|A2e2 e2A2 c4:|
|:Bdgd Bdgd Bdgd|B/c/def g2B2 d2g2|Bdgd Bdgd Bdgd|A2e2 e2A2 c4:|

